svg/color/hibs.svg

<?xml version="1.0" encoding="UTF-8" ?>
<!DOCTYPE svg PUBLIC "-//W3C//DTD SVG 1.1//EN" "http://www.w3.org/Graphics/SVG/1.1/DTD/svg11.dtd">
<svg width="250pt" height="227pt" viewBox="0 0 250 227" version="1.1" xmlns="http://www.w3.org/2000/svg">
<g id="#ffffffff">
<path fill="#ffffff" opacity="1.00" d=" M 0.00 0.00 L 250.00 0.00 L 250.00 227.00 L 0.00 227.00 L 0.00 0.00 M 40.37 26.38 C 36.63 30.63 35.42 36.50 35.51 42.02 C 35.60 66.39 35.43 90.75 35.58 115.12 C 35.49 137.40 35.53 159.69 35.51 181.98 C 35.28 189.87 39.74 197.57 46.56 201.47 C 53.98 206.01 64.21 205.46 71.02 200.02 C 75.08 196.79 78.28 192.27 79.33 187.13 C 80.09 182.46 79.66 177.71 79.72 173.00 C 79.76 128.65 79.63 84.30 79.71 39.95 C 80.06 31.53 74.49 23.39 66.85 20.07 C 62.62 17.87 57.67 18.18 53.07 18.54 C 48.03 19.40 43.69 22.63 40.37 26.38 M 180.55 18.80 C 172.96 20.79 166.88 27.12 164.84 34.64 C 163.59 40.58 164.17 47.18 167.66 52.30 C 171.93 59.07 179.98 63.29 188.01 62.54 C 199.42 62.18 208.98 51.27 208.44 39.98 C 208.57 31.88 203.60 24.17 196.45 20.49 C 191.68 17.70 185.82 18.03 180.55 18.80 M 102.33 62.19 C 100.21 66.45 99.65 71.30 99.69 76.00 C 99.74 90.56 99.70 105.12 99.69 119.68 C 99.78 129.47 99.66 139.26 99.72 149.05 C 99.79 156.08 102.79 163.17 108.45 167.51 C 118.00 174.85 133.87 172.83 140.40 162.37 C 144.49 156.78 144.31 149.58 144.17 142.99 C 144.02 137.41 144.49 131.80 143.90 126.24 C 144.54 108.50 143.99 90.72 144.17 72.96 C 144.45 63.68 138.30 54.47 129.33 51.71 C 119.35 48.04 107.30 52.87 102.33 62.19 M 164.38 103.02 C 164.11 112.94 164.36 122.88 164.24 132.81 C 164.36 149.54 164.17 166.26 164.28 182.99 C 164.24 194.44 174.59 204.70 186.04 204.52 C 197.22 204.59 208.08 195.54 208.36 184.03 C 208.52 166.97 208.26 149.90 208.45 132.83 C 208.32 123.22 208.46 113.60 208.40 103.98 C 208.37 93.79 200.00 84.48 189.94 83.12 C 177.76 80.63 164.88 90.57 164.38 103.02 Z" />
</g>
<g id="#24a4ddff">
<path fill="#24a4dd" opacity="1.00" d=" M 40.37 26.38 C 43.69 22.63 48.03 19.40 53.07 18.54 C 57.67 18.18 62.62 17.87 66.85 20.07 C 74.49 23.39 80.06 31.53 79.71 39.95 C 79.63 84.30 79.76 128.65 79.72 173.00 C 79.66 177.71 80.09 182.46 79.33 187.13 C 79.53 166.41 79.13 145.70 78.72 124.98 C 78.71 121.64 77.78 118.42 76.77 115.28 C 63.04 115.08 49.31 115.45 35.58 115.12 C 35.43 90.75 35.60 66.39 35.51 42.02 C 35.42 36.50 36.63 30.63 40.37 26.38 Z" />
<path fill="#24a4dd" opacity="1.00" d=" M 180.55 18.80 C 185.82 18.03 191.68 17.70 196.45 20.49 C 203.60 24.17 208.57 31.88 208.44 39.98 C 208.98 51.27 199.42 62.18 188.01 62.54 C 179.98 63.29 171.93 59.07 167.66 52.30 C 164.17 47.18 163.59 40.58 164.84 34.64 C 166.88 27.12 172.96 20.79 180.55 18.80 Z" />
<path fill="#24a4dd" opacity="1.00" d=" M 102.33 62.19 C 107.30 52.87 119.35 48.04 129.33 51.71 C 138.30 54.47 144.45 63.68 144.17 72.96 C 143.99 90.72 144.54 108.50 143.90 126.24 C 143.13 123.57 142.78 120.37 140.54 118.47 C 134.07 117.57 127.51 118.39 121.00 118.18 C 113.90 118.47 106.49 116.95 99.69 119.68 C 99.70 105.12 99.74 90.56 99.69 76.00 C 99.65 71.30 100.21 66.45 102.33 62.19 Z" />
<path fill="#24a4dd" opacity="1.00" d=" M 164.38 103.02 C 164.88 90.57 177.76 80.63 189.94 83.12 C 200.00 84.48 208.37 93.79 208.40 103.98 C 208.46 113.60 208.32 123.22 208.45 132.83 C 205.04 128.91 199.62 129.82 194.99 129.81 C 186.97 130.07 178.94 129.66 170.93 129.85 C 168.32 129.70 166.26 131.42 164.24 132.81 C 164.36 122.88 164.11 112.94 164.38 103.02 Z" />
</g>
<g id="#1e87c8ff">
<path fill="#1e87c8" opacity="1.00" d=" M 35.58 115.12 C 49.31 115.45 63.04 115.08 76.77 115.28 C 77.78 118.42 78.71 121.64 78.72 124.98 C 79.13 145.70 79.53 166.41 79.33 187.13 C 78.28 192.27 75.08 196.79 71.02 200.02 C 64.21 205.46 53.98 206.01 46.56 201.47 C 39.74 197.57 35.28 189.87 35.51 181.98 C 35.53 159.69 35.49 137.40 35.58 115.12 Z" />
<path fill="#1e87c8" opacity="1.00" d=" M 99.69 119.68 C 106.49 116.95 113.90 118.47 121.00 118.18 C 127.51 118.39 134.07 117.57 140.54 118.47 C 142.78 120.37 143.13 123.57 143.90 126.24 C 144.49 131.80 144.02 137.41 144.17 142.99 C 144.31 149.58 144.49 156.78 140.40 162.37 C 133.87 172.83 118.00 174.85 108.45 167.51 C 102.79 163.17 99.79 156.08 99.72 149.05 C 99.66 139.26 99.78 129.47 99.69 119.68 Z" />
<path fill="#1e87c8" opacity="1.00" d=" M 164.24 132.81 C 166.26 131.42 168.32 129.70 170.93 129.85 C 178.94 129.66 186.97 130.07 194.99 129.81 C 199.62 129.82 205.04 128.91 208.45 132.83 C 208.26 149.90 208.52 166.97 208.36 184.03 C 208.08 195.54 197.22 204.59 186.04 204.52 C 174.59 204.70 164.24 194.44 164.28 182.99 C 164.17 166.26 164.36 149.54 164.24 132.81 Z" />
</g>
</svg>

<?xml version="1.0" encoding="utf-8"?>
<!-- Generator: Adobe Illustrator 26.0.3, SVG Export Plug-In . SVG Version: 6.00 Build 0)  -->
<svg version="1.1" id="Layer_1" xmlns="http://www.w3.org/2000/svg" xmlns:xlink="http://www.w3.org/1999/xlink" x="0px" y="0px"
	 viewBox="0 0 250 227" style="enable-background:new 0 0 250 227;" xml:space="preserve">
<style type="text/css">
	.st0{fill:#24A4DD;}
	.st1{fill:#1E87C8;}
</style>
<g id="_x23_24a4ddff">
	<path class="st0" d="M40.4,26.4c3.3-3.8,7.7-7,12.7-7.8c4.6-0.4,9.5-0.7,13.8,1.5c7.6,3.3,13.2,11.5,12.9,19.9
		c-0.1,44.4,0.1,88.7,0,133.1c-0.1,4.7,0.4,9.5-0.4,14.1c0.2-20.7-0.2-41.4-0.6-62.2c0-3.3-0.9-6.6-2-9.7
		c-13.7-0.2-27.5,0.2-41.2-0.2c-0.2-24.4,0-48.7-0.1-73.1C35.4,36.5,36.6,30.6,40.4,26.4z"/>
	<path class="st0" d="M180.6,18.8c5.3-0.8,11.1-1.1,15.9,1.7c7.2,3.7,12.1,11.4,12,19.5c0.5,11.3-9,22.2-20.4,22.6
		c-8,0.8-16.1-3.5-20.3-10.2c-3.5-5.1-4.1-11.7-2.8-17.7C166.9,27.1,173,20.8,180.6,18.8z"/>
	<path class="st0" d="M102.3,62.2c5-9.3,17-14.1,27-10.5c9,2.8,15.1,12,14.8,21.2c-0.2,17.8,0.4,35.5-0.3,53.3
		c-0.8-2.7-1.1-5.9-3.4-7.8c-6.5-0.9-13-0.1-19.5-0.3c-7.1,0.3-14.5-1.2-21.3,1.5c0-14.6,0-29.1,0-43.7
		C99.7,71.3,100.2,66.4,102.3,62.2z"/>
	<path class="st0" d="M164.4,103c0.5-12.4,13.4-22.4,25.6-19.9c10.1,1.4,18.4,10.7,18.5,20.9c0.1,9.6-0.1,19.2,0.1,28.8
		c-3.4-3.9-8.8-3-13.5-3c-8,0.3-16.1-0.1-24.1,0c-2.6-0.2-4.7,1.6-6.7,3C164.4,122.9,164.1,112.9,164.4,103z"/>
</g>
<g id="_x23_1e87c8ff">
	<path class="st1" d="M35.6,115.1c13.7,0.3,27.5,0,41.2,0.2c1,3.1,1.9,6.4,2,9.7c0.4,20.7,0.8,41.4,0.6,62.2
		c-1.1,5.1-4.2,9.7-8.3,12.9c-6.8,5.4-17,6-24.5,1.4c-6.8-3.9-11.3-11.6-11.1-19.5C35.5,159.7,35.5,137.4,35.6,115.1z"/>
	<path class="st1" d="M99.7,119.7c6.8-2.7,14.2-1.2,21.3-1.5c6.5,0.2,13.1-0.6,19.5,0.3c2.2,1.9,2.6,5.1,3.4,7.8
		c0.6,5.6,0.1,11.2,0.3,16.8c0.1,6.6,0.3,13.8-3.8,19.4c-6.5,10.5-22.4,12.5-31.9,5.1c-5.7-4.3-8.7-11.4-8.7-18.5
		C99.7,139.3,99.8,129.5,99.7,119.7z"/>
	<path class="st1" d="M164.2,132.8c2-1.4,4.1-3.1,6.7-3c8-0.2,16,0.2,24.1,0c4.6,0,10-0.9,13.5,3c-0.2,17.1,0.1,34.1-0.1,51.2
		c-0.3,11.5-11.1,20.6-22.3,20.5c-11.4,0.2-21.8-10.1-21.8-21.5C164.2,166.3,164.4,149.5,164.2,132.8z"/>
</g>
</svg>
